X:1
T:[ID 1-66b]
T:[ID 1-66b]
T:Bezeichnung standardisiert: Menuett Men:
T:Urheber unbekannt Datum in der hier transkribierten schriftlichen Quelle: vermutlich vor 1767
C:Urheber unbekannt
C:Datum in der hier transkribierten schriftlichen Quelle: vermutlich vor 1767
L:1/8
M:3/4
K:F
V:1 treble 
V:1
 cB | AG F2 E2 | F4 c2 | fefgaf | g4 f2 | ef g2 d2 | ed c2 d2 | e2 dcd=B | c4 :: c2 | c2 _edec | %11
 dc B2 d2 | d2 fefd | ed c2 b2 | a2 gfge | f4 B2 | A2 GFGE | F4 :| %18

